dist/svgs/devui-icons/op/select-horizontal-layout.svg

<?xml version="1.0" encoding="UTF-8"?>
<svg width="16px" height="16px" viewBox="0 0 16 16" version="1.1" xmlns="http://www.w3.org/2000/svg" xmlns:xlink="http://www.w3.org/1999/xlink">
    <title>操作/左右布局</title>
    <desc>Created with Sketch.</desc>
    <g id="操作/左右布局" stroke="none" stroke-width="1" fill="none" fill-rule="evenodd">
        <path d="M1,1 L5,1 C5.55228475,1 6,1.44771525 6,2 L6,14 C6,14.5522847 5.55228475,15 5,15 L1,15 C0.44771525,15 6.76353751e-17,14.5522847 0,14 L0,2 C-6.76353751e-17,1.44771525 0.44771525,1 1,1 Z M2,3 L2,13 L4,13 L4,3 L2,3 Z M11,1 L15,1 C15.5522847,1 16,1.44771525 16,2 L16,14 C16,14.5522847 15.5522847,15 15,15 L11,15 C10.4477153,15 10,14.5522847 10,14 L10,2 C10,1.44771525 10.4477153,1 11,1 Z M12,3 L12,13 L14,13 L14,3 L12,3 Z M7,0 L9,0 L9,16 L7,16 L7,0 Z" id="形状" fill="#293040"></path>
    </g>
</svg>

<svg xmlns="http://www.w3.org/2000/svg" viewBox="0 0 16 16"><path fill-rule="evenodd" d="M1 1h4a1 1 0 011 1v12a1 1 0 01-1 1H1a1 1 0 01-1-1V2a1 1 0 011-1zm1 2v10h2V3H2zm9-2h4a1 1 0 011 1v12a1 1 0 01-1 1h-4a1 1 0 01-1-1V2a1 1 0 011-1zm1 2v10h2V3h-2zM7 0h2v16H7V0z"/></svg>
